lib/radiotmp/nrk-alarm-clock.svg

<svg width="24" height="24" viewBox="0 0 24 24" fill="none" xmlns="http://www.w3.org/2000/svg">
<path d="M2.17713 0.629883L0.677155 2.12985L2.09121 3.54391L3.59118 2.04394L2.17713 0.629883Z" fill="black"/>
<path d="M11 12.4142V5.99997H13V11.5858L16.7071 15.2929L15.2929 16.7071L11 12.4142Z" fill="black"/>
<path fill-rule="evenodd" clip-rule="evenodd" d="M1 12C1 5.92487 5.9249 0.999971 12 0.999971C18.0751 0.999971 23 5.92487 23 12C23 14.6775 22.0416 17.1299 20.4515 19.0374L23 21.5859L21.5859 23L19.0374 20.4515C17.1299 22.0416 14.6775 23 12 23C9.3225 23 6.8701 22.0416 4.9626 20.4515L2.4141 23L1 21.5859L3.5485 19.0374C1.9584 17.1299 1 14.6775 1 12ZM12 2.99997C7.0294 2.99997 3 7.02937 3 12C3 16.9705 7.0294 21 12 21C16.9706 21 21 16.9705 21 12C21 7.02937 16.9706 2.99997 12 2.99997Z" fill="black"/>
<path d="M20.421 2.0441L21.835 0.630041L23.335 2.13001L21.9209 3.54407L20.421 2.0441Z" fill="black"/>
</svg>

<svg xmlns="http://www.w3.org/2000/svg" viewBox="0 0 24 24"><path fill="#000" d="m2.177.63-1.5 1.5 1.414 1.414 1.5-1.5L2.177.63ZM11 12.414V6h2v5.586l3.707 3.707-1.414 1.414L11 12.414Z"/><path fill="#000" fill-rule="evenodd" d="M1 12C1 5.925 5.925 1 12 1s11 4.925 11 11c0 2.678-.958 5.13-2.549 7.037L23 21.586 21.586 23l-2.549-2.549A10.952 10.952 0 0 1 12 23c-2.678 0-5.13-.958-7.037-2.549L2.414 23 1 21.586l2.549-2.549A10.952 10.952 0 0 1 1 12Zm11-9a9 9 0 1 0 0 18 9 9 0 0 0 0-18Z" clip-rule="evenodd"/><path fill="#000" d="M20.421 2.044 21.835.63l1.5 1.5-1.414 1.414-1.5-1.5Z"/></svg>
